X:1
T:Nun Danket, 67.67.66.66
T:Nun Danket, 67.67.66.66
T:Johann Crüger, 1647
T:Public Domain Courtesy of the Cyber Hymnal™
C:Johann Crüger, 1647
Z:Public Domain
Z:Courtesy of the Cyber Hymnal™
%%score ( 1 2 ) ( 3 4 )
L:1/8
Q:1/4=112
M:4/4
K:Eb
V:1 treble 
V:2 treble 
V:3 bass 
V:4 bass 
V:1
 [EB]2 | [FB]2 [EB]2 [Ec]2 c2 | [EB]6 B2 | A2 [EG]2 [DF]2 [EG]2 | F4 E2 [EB]2 | %5
 [FB]2 [EB]2 [Ec]2 [Ec]2 | [EB]6 [EB]2 | A2 [EG]2 F2 G2 | F4 [G,E]2 [B,F]2 | %9
 [CF]2 F2 [B,G]2 [EG]2 | [DF]6 F2 | (G=A) [FB]2 [Ec]2 [DA]2 | [DB]6 [DB]2 | %13
 [Cc]2 [CB]2 [CA]2 [=EG]2 | [FA]6 G2 | [CF]2 E2 [B,E]2 D2 | [G,E]6 |] %17
V:2
 x2 | x6 (CD) | x6 (ED) | (CD) x6 | (E2 D2) E2 x2 | x8 | x8 | (ED) x (E D) (C=B,) x | %8
 (C2 B,A,) x4 | x2 (DC) x4 | x6 F2 | E2 x6 | x8 | x8 | x6 (ED) | x2 (G,A,) x (B,A,) x | x6 |] %17
V:3
 [E,G,]2 | [D,F,]2 [E,G,]2 A,2 (E,F,) | [E,G,]6 [E,G,]2 | [F,A,]2 B,2 [E,B,]2 x2 | %4
 [B,,B,]4 [E,,E,G,]2 [E,G,]2 | [_D,F,]2 [D,G,]2 A,2 [A,,A,]2 | [E,,G,]6 G,2 | %7
 [C,A,]2 [B,,B,]2 [A,,F,]2 D,2 | (F,E, [B,,D,]2) [E,,E,]2 [B,,D,]2 | [=A,,F,]2 (B,=A,) G,2 B,2 | %10
 [B,,B,]6 [D,B,]2 | [E,B,]2 [D,B,]2 (B,=A,) (G,^F,) | [G,,G,]6 B,2 | %13
 [=E,G,]2 ([D,F,][E,G,]) (A,B,) [C,C]2 | [F,,C]6 [G,,B,]2 | [A,,A,]2 (E,F,) [B,,G,]2 [B,,F,]2 | %16
 [E,,E,G,]6 |] %17
V:4
 x2 | x4 A,2 A,,2 | x8 | x2 (G,A,) B,2 x2 | x8 | x4 (C,B,,) x2 | x6 (E,D,) | x6 D,2 | A,,2 x6 | %9
 x2 B,,2 (E,,F,,) (G,,=A,,) | x8 | x4 C,2 D,2 | x6 (G,F,) | x4 F,2 x2 | x8 | x2 C,2 x4 | x6 |] %17

